assets/img/braze_icons/corner-up-left.svg

<svg fill="none" height="24" viewBox="0 0 24 24" width="24" xmlns="http://www.w3.org/2000/svg"><path d="m9.70711 4.70711c.39049-.39053.39049-1.02369 0-1.41422-.39053-.39052-1.02369-.39052-1.41422 0l-5 5c-.39052.39053-.39052 1.02369 0 1.41422l5 4.99999c.39053.3905 1.02369.3905 1.41422 0 .39049-.3905.39049-1.0237 0-1.4142l-3.2929-3.2929h3.98579c1.6967 0 2.909.0008 3.8594.0784.9386.0767 1.5333.2234 2.0106.4666.9408.4793 1.7057 1.2442 2.185 2.185.2432.4773.3899 1.072.4666 2.0106.0776.9504.0784 2.1627.0784 3.8594v1.4c0 .5523.4477 1 1 1s1-.4477 1-1v-1.4444c0-1.6426 0-2.9365-.0851-3.9778-.0868-1.0624-.2671-1.9495-.6779-2.7557-.6711-1.3172-1.7419-2.38803-3.0591-3.05915-.8062-.41078-1.6933-.59109-2.7557-.67788-1.0413-.08508-2.3352-.08508-3.9778-.08507h-4.03019z" fill="#801ed7"/></svg>

<svg width="24" height="24" viewBox="0 0 24 24" fill="none" xmlns="http://www.w3.org/2000/svg">
<path d="M9.70711 4.70711C10.0976 4.31658 10.0976 3.68342 9.70711 3.29289C9.31658 2.90237 8.68342 2.90237 8.29289 3.29289L3.29289 8.29289C2.90237 8.68342 2.90237 9.31658 3.29289 9.70711L8.29289 14.7071C8.68342 15.0976 9.31658 15.0976 9.70711 14.7071C10.0976 14.3166 10.0976 13.6834 9.70711 13.2929L6.41421 10H10.4C12.0967 10 13.309 10.0008 14.2594 10.0784C15.198 10.1551 15.7927 10.3018 16.27 10.545C17.2108 11.0243 17.9757 11.7892 18.455 12.73C18.6982 13.2073 18.8449 13.802 18.9216 14.7406C18.9992 15.691 19 16.9033 19 18.6V20C19 20.5523 19.4477 21 20 21C20.5523 21 21 20.5523 21 20V18.5556C21 16.913 21 15.6191 20.9149 14.5778C20.8281 13.5154 20.6478 12.6283 20.237 11.8221C19.5659 10.5049 18.4951 9.43407 17.1779 8.76295C16.3717 8.35217 15.4846 8.17186 14.4222 8.08507C13.3809 7.99999 12.087 7.99999 10.4444 8L6.41421 8L9.70711 4.70711Z" fill="#801ED7"/>
</svg>
